X:1
T:The Wanderer
T:The Wanderer
T:Beverly Francis Carradine
T:Beverly Francis Carradine, 1899
T:Public Domain Courtesy of the Cyber Hymnal™
T:Public Domain Courtesy of the Cyber Hymnal™
T:Public Domain Courtesy of the Cyber Hymnal™
C:Beverly Francis Carradine
Z:Public Domain
Z:Courtesy of the Cyber Hymnal™
%%score ( 1 2 ) ( 3 4 )
L:1/8
Q:1/4=88
M:4/4
K:C
V:1 treble 
V:2 treble 
V:3 bass 
V:4 bass 
V:1
 C[CE] | [EG][EG] [EG]>[FA] [EG][CE][B,D]C | [Cc][Fc] [Fc]>[Fc] [Ec]2 C[CE] | %3
w: 1.~I had|wan- dered off from Heav- en, On the|mount- ains cold and gray, When I|
w: 2.~I was|work- ing in the tem- ple With the|Sav- ior by my side, Where the|
w: 3.~Ma- ny|ear- ly friends had left me, While the|va- cant room and chair, Were re-|
w: 4.~Then I|saw at once that Je- sus Could be|bet- ter far than all; He could|
w: 5.~So I|heard the Sav- ior call- ing, “Come thou|wear- y one a- way,” And my|
 [EG][EG] [EG]>[EG] [FA][EG][CE][CE] | [CE][CD] [CD]>[A,C] [B,D]2 C[CE] | %5
w: heard my Sav- ior call- ing, To His|lost sheep far a- way; How I|
w: mul- ti- tude as- sem- bled, In its|mis- er- y and pride; Glanc- ing|
w: min- ders of the pric- es I had|paid down to be there; I was|
w: light- en up the path- way, Could sur-|round me like a wall; He could|
w: an- swer quick- ly fol- lowed, “Lord, I’m|com- ing home to- day”; Now His|
 [EG][EG] [EG]>[FA] [EG][CE][B,D]C | [Cc][Fc] [Gc]>[Gd] !fermata![Ge]2 [Ge][Gd] | %7
w: list- ened as the tear drops Coursed a-|down like fall- ing rain, While His|
w: up- ward from my la- bor I just|caught His dis- tant smile, “You have|
w: brood- ing o’er my loss- es When the|Sav- ior spoke to me, “You have|
w: take the place of loved ones, Wipe the|fall- ing tears a- way, Turn my|
w: lov- ing arms are round me, And my|head is on His breast, While I|
 [Ac]>[^GB] [Ac][FA] [E=G]<[CE] [EG]>G | [Ec][Ec] [Fd]>[FB] [Ec]2 ||"^Refrain" [EG][EG] | %10
w: ten- der words of prom- ise, Made my|spir- it glad a- gain.||
w: placed your work be- tween us, Come and|talk with Me a- while.”||
w: let your sor- rows set- tle, Like a|cloud ’tween Me and thee.”|“Come, oh,|
w: sor- rows in- to laugh- ter, Change the|night- tide in- to day.||
w: catch His faint- est whis- per, And my|spir- it is at rest.||
 [FB][FB] [FB]>[FG] [EA]<[EG] [EG]G | [Fc][Fc] [Fc]>[FA] | [EG]2 [EG][EG] | %13
w: |||
w: |||
w: come to Me,” said Je- sus, Come and|I will give you|rest, I will|
w: |||
w: |||
 [FB][FB] [FB]>[FG] [EA][EG][EG]G | [Fc][Fc] [Fc]>[FA] [EG]2 (C[CE]) | %15
w: ||
w: ||
w: take a- way the bur- den From the|heav- y la- den breast. No *|
w: ||
w: ||
 [EG][EG] [EG]>[FA] [EG][CE][B,D]C | [Cc][Fc] [Gc]>[Gd] !fermata![Ge]2 [Ge][Gd] | %17
w: ||
w: ||
w: mat- ter who the wand- ’rer, Nor how|far he’s gone a- stray, Be- hold,|
w: ||
w: ||
 [Ac]>[^GB] [Ac][FA] [E=G]<[CE] [EG]>G | [Ec][Ec] [Fd]>[FB] [Ec]2 |] %19
w: ||
w: ||
w: who- so- ev- er com- eth, I will|com- fort him to- day.|
w: ||
w: ||
V:2
 C x | x7 C | x6 C x | x8 | x6 C x | x7 C | x8 | x15/2 G/ | x6 || x2 | x7 G | x4 | x4 | x7 G | %14
 x6 C x | x7 C | x8 | x15/2 G/ | x6 |] %19
V:3
 [C,E,][C,G,] | [C,C][C,C] [C,C]>[C,C] [C,C][C,G,][D,G,][E,_B,] | %2
 [F,A,][F,A,] [F,A,]>[F,A,] [C,G,]2 [C,E,][C,G,] | [C,C][C,C] [C,C]>[C,C] [C,C][C,C][C,G,][C,G,] | %4
 [D,^F,][D,F,] [D,F,]>[D,F,] [G,,G,]2 [C,E,][C,G,] | %5
 [C,C][C,C] [C,C]>[C,C] [C,C][C,G,][D,G,][E,_B,] | %6
 [F,A,][F,A,] [E,C]>[G,B,] !fermata!C2 [C,C][E,C] | %7
 [F,C]>[F,C] [F,C][F,C] [C,C]<[C,G,] [C,C]>[E,C] | [G,C][G,C] [G,B,]>[G,D] [C,C]2 || [C,C][C,C] | %10
 [G,D][G,D] [G,D]>[G,B,] [C,C]<[C,C] [C,C][E,_B,] | [F,A,][F,A,] [F,A,]>[F,C] | [C,C]2 [C,C][C,C] | %13
 [G,D][G,D] [G,D]>[G,B,] [C,C][C,C][C,C][C,_B,] | [F,A,][F,A,] [F,A,]>[F,C] [C,C]2 ([C,E,][C,G,]) | %15
 [C,C][C,C] [C,C]>[C,C] [C,C][C,G,][D,G,][E,_B,] | %16
 [F,A,][F,A,] [E,C]>[G,B,] !fermata!C2 [C,C][E,C] | %17
 [F,C]>[F,C] [F,C][F,C] [C,C]<[C,G,] [C,C]>[E,C] | [G,C][G,C] [G,B,]>[G,D] [C,C]2 |] %19
V:4
 x2 | x8 | x8 | x8 | x8 | x8 | x4 C2 x2 | x8 | x6 || x2 | x8 | x4 | x4 | x8 | x8 | x8 | x4 C2 x2 | %17
 x8 | x6 |] %19

